X:61
T:Arra Mountains
T:Arragh Mountains
R:slip jig
C:Paddy O'Brien (1922-1981) of Newtown, Co. Tipperary
Z:id:hn-slipjig-61
M:9/8
L:1/8
K:Ador
EAA EAB cBc | EAA AGF GED | EAA EAB c2d | ~e3 ege dBG :|
A2a gef ~g3 | eaa ged Bcd | eaa gef ~g2e | dB/^c/d ege dBG |
A2a gef ~g3 | aba ged Bcd | e/f/ge f/g/af g2e | dB/^c/d ege dBG ||
<end>
<start>
